X:873
T:Young Sandy Tulloch - reel
C:Jimmy Shand
S:Jimmy Shand Scottish Dance Album Bk.2 (1953)
Z:Nigel Gatherer
M:4/4
L:1/8
K:G
d | gG (3GGG BGGG | cBAG FD D2 | gG (3GGG BGGG | ABcA defd |
gG (3GGG BGGG | cBAG FD D2 | GABG ABcA | (3Bcd DF G2 G :|
c | Bdde dBAG | Bdde d2B2 | Bdde dGBd | edcB A2G2 |
Bdde dBAG | Bdde d2 ga | bgaf gfed | (3efg dB A3 :|
